packages/icons/svg/Outline/info.svg

<svg fill="none" height="24" viewBox="0 0 24 24" width="24" xmlns="http://www.w3.org/2000/svg"><path clip-rule="evenodd" d="m11 8.00007c0-.55201.448-1.00001 1-1.00001s1 .448 1 1.00001c0 .552-.448 1-1 1s-1-.448-1-1zm0 3.00003c0-.552.448-1 1-1s1 .448 1 1v5c0 .552-.448 1-1 1s-1-.448-1-1zm1 9c-4.41098 0-7.99998-3.589-7.99998-8 0-4.41104 3.589-8.00003 7.99998-8.00003 4.411 0 8 3.58899 8 8.00003 0 4.411-3.589 8-8 8zm0-18.0001c-5.523 0-10 4.477-10 10s4.477 10 10 10c5.522 0 10-4.477 10-10s-4.478-10-10-10z" fill="#6b7280" fill-rule="evenodd"/></svg>

<svg width="24" height="24" viewBox="0 0 24 24" fill="none" xmlns="http://www.w3.org/2000/svg">
<g id="Icon/Outline/info">
<path id="Mask" fill-rule="evenodd" clip-rule="evenodd" d="M11 8C11 7.448 11.448 7 12 7C12.552 7 13 7.448 13 8C13 8.552 12.552 9 12 9C11.448 9 11 8.552 11 8ZM11 11C11 10.448 11.448 10 12 10C12.552 10 13 10.448 13 11V16C13 16.552 12.552 17 12 17C11.448 17 11 16.552 11 16V11ZM12 20C7.589 20 4 16.411 4 12C4 7.589 7.589 4 12 4C16.411 4 20 7.589 20 12C20 16.411 16.411 20 12 20ZM12 2C6.477 2 2 6.477 2 12C2 17.523 6.477 22 12 22C17.522 22 22 17.523 22 12C22 6.477 17.522 2 12 2Z" fill="#000000"/>
</g>
</svg>
